dressly/src/assets/icons/newsletter.svg

<svg width="20" height="20" viewBox="0 0 20 20" fill="none" xmlns="http://www.w3.org/2000/svg">
<g clip-path="url(#clip0_135_783)">
<path fill-rule="evenodd" clip-rule="evenodd" d="M19.9541 1.34519C19.789 0.708315 19.2917 0.210972 18.6548 0.0459412C18.3418 -0.0351617 18.033 0.00538224 17.774 0.0583119C17.5159 0.111071 17.2 0.201352 16.8352 0.305576L2.44188 4.41796C1.98191 4.54937 1.59462 4.66001 1.29916 4.76889C1.01581 4.87331 0.677815 5.02205 0.437894 5.30112C-0.0340607 5.8501 -0.133862 6.62735 0.184089 7.27774C0.345721 7.60838 0.635174 7.83769 0.882955 8.0103C1.14132 8.19029 1.48807 8.39519 1.89991 8.63853L6.98778 11.645C7.34545 11.8563 7.46674 11.9297 7.57386 12.0127C7.72849 12.1326 7.86739 12.2715 7.98729 12.4261C8.07035 12.5333 8.14366 12.6546 8.355 13.0122L11.3615 18.1001C11.6048 18.5119 11.8097 18.8587 11.9897 19.117C12.1623 19.3648 12.3916 19.6543 12.7223 19.8159C13.3727 20.1339 14.1499 20.0341 14.6989 19.5621C14.978 19.3222 15.1267 18.9842 15.2311 18.7008C15.34 18.4054 15.4506 18.0181 15.582 17.5582L19.6944 3.16478C19.7986 2.80005 19.8889 2.4841 19.9417 2.22599C19.9946 1.96704 20.0352 1.65818 19.9541 1.34519ZM18.085 1.57965C18.2077 1.55456 18.263 1.5528 18.2777 1.55264C18.3586 1.57795 18.422 1.64138 18.4474 1.72228C18.4472 1.73703 18.4454 1.79225 18.4204 1.91503C18.381 2.10747 18.3079 2.36531 18.1933 2.76654L14.0975 17.1018C13.9553 17.5994 13.8604 17.9298 13.7741 18.1639C13.7171 18.3186 13.6807 18.3807 13.6711 18.397C13.5993 18.4497 13.5052 18.4618 13.4224 18.4289C13.409 18.4156 13.358 18.3647 13.2638 18.2294C13.1212 18.0247 12.9458 17.729 12.6825 17.2835L9.66862 12.183C9.55929 11.9979 9.47042 11.8474 9.38369 11.7143L12.9367 8.16126C13.2399 7.85806 13.2399 7.36647 12.9367 7.06327C12.6335 6.76007 12.1419 6.76007 11.8387 7.06327L8.28569 10.6163C8.15255 10.5296 8.00212 10.4407 7.81704 10.3314L2.71654 7.31745C2.27096 7.05415 1.97527 6.87882 1.77056 6.7362C1.63532 6.64199 1.58441 6.59104 1.57109 6.57762C1.53819 6.49483 1.55027 6.40074 1.60302 6.32895C1.6193 6.31932 1.68143 6.28289 1.83608 6.2259C2.07018 6.13964 2.40058 6.04469 2.89822 5.90251L17.2335 1.80672C17.6347 1.69208 17.8925 1.61899 18.085 1.57965Z" fill="#12070B"/>
</g>
<defs>
<clipPath id="clip0_135_783">
<rect width="20" height="20" fill="white"/>
</clipPath>
</defs>
</svg>

<svg xmlns="http://www.w3.org/2000/svg" width="20" height="20" fill="none"><g clip-path="url(#a)"><path fill="#12070B" fill-rule="evenodd" d="M19.954 1.345a1.81 1.81 0 0 0-1.3-1.3c-.312-.08-.621-.04-.88.013a14 14 0 0 0-.939.248L2.442 4.418c-.46.131-.847.242-1.143.35-.283.105-.621.254-.861.533a1.81 1.81 0 0 0-.254 1.977c.162.33.451.56.699.732.258.18.605.385 1.017.629l5.088 3.006c.357.211.479.285.586.368q.232.18.413.413c.083.107.157.229.368.586l3.006 5.088c.244.412.449.759.629 1.017.172.248.402.537.732.699.65.318 1.428.218 1.977-.254.279-.24.428-.578.532-.861.109-.296.22-.683.351-1.143l4.112-14.393c.105-.365.195-.68.248-.939s.093-.568.012-.88m-1.869.235c.123-.025.178-.027.193-.027a.26.26 0 0 1 .17.17c0 .014-.003.07-.028.192-.039.192-.112.45-.227.852l-4.096 14.335c-.142.497-.237.828-.323 1.062a1.4 1.4 0 0 1-.103.233.26.26 0 0 1-.249.032 1.4 1.4 0 0 1-.158-.2 17 17 0 0 1-.582-.945L9.67 12.183c-.11-.185-.199-.336-.285-.469l3.553-3.553a.776.776 0 1 0-1.098-1.098l-3.553 3.553a13 13 0 0 0-.469-.285l-5.1-3.014a17 17 0 0 1-.946-.58 1.4 1.4 0 0 1-.2-.16.26.26 0 0 1 .032-.248 1.4 1.4 0 0 1 .233-.103c.234-.086.565-.181 1.062-.323l14.336-4.096c.4-.115.658-.188.851-.227" clip-rule="evenodd"/></g><defs><clipPath id="a"><path fill="#fff" d="M0 0h20v20H0z"/></clipPath></defs></svg>
